src/sql/media/objectTypes/FileGroupFile_mounted.svg

<svg xmlns="http://www.w3.org/2000/svg" width="15.996" height="16" viewBox="0 0 15.996 16">
  <title>FileGroupFile_mounted_V2</title>
  <path d="M15.984,16h-16V0h16Z" fill="#f6f6f6" fill-opacity="0"/>
  <path d="M14.985,0V15h-14V0Z" fill="#f6f6f6"/>
  <path d="M1.986,1V2h1V3h-1V4h1V5h-1V6h1V7h-1V8h1V9h-1v1h1v1h-1v1h1v1h-1v1h12V1Zm11,12h-9V2h9Zm-2-9V6h-5V4Z" fill="#424242"/>
  <path d="M4,2V12.987h8.991V2Zm6.993,3v1h-5V4h5Z" fill="#f0eff1"/>
  <path d="M7.2,15.961a2.559,2.559,0,0,1-.263-.013H4.139L3.9,15.332a4.765,4.765,0,0,0-.436-.823l-.044-.066-.039-.077a1.8,1.8,0,0,1,.081-1.723,1.376,1.376,0,0,1,1.143-.657,1.241,1.241,0,0,1,.684.2l.081.058a4.7,4.7,0,0,1,.72.718h.3L4.836,9.973h2.3a2.641,2.641,0,0,1,2.85,2.415V12.4a2.593,2.593,0,0,1-.007.506,2.793,2.793,0,0,1-2.514,3.042C7.378,15.957,7.287,15.961,7.2,15.961Z" fill="#f0eff1"/>
  <path d="M7.138,10.978H6.471l.518,1c.379,0,1,0,1,1,0,.379,0,1-.777,1H5.573a3.719,3.719,0,0,0-.827-.937c-.288-.189-.747.289-.458.927a5.667,5.667,0,0,1,.528,1H6.989a1.8,1.8,0,0,0,2-1.57,1.769,1.769,0,0,0,0-.424C8.982,11.477,8.255,10.978,7.138,10.978Z" fill="#424242"/>
  <path d="M2.906,15.961A2.664,2.664,0,0,1,.012,13.548h0a2.576,2.576,0,0,1,0-.512A2.793,2.793,0,0,1,2.526,9.99a2.75,2.75,0,0,1,.529,0h2.83l.253.62a4.821,4.821,0,0,0,.435.822l.044.066.034.075A1.793,1.793,0,0,1,6.57,13.3a1.376,1.376,0,0,1-1.146.653,1.249,1.249,0,0,1-.684-.2l-.081-.058a4.593,4.593,0,0,1-.715-.72H3.6l1.615,2.994Z" fill="#f0eff1"/>
  <path d="M2.905,14.965h.638l-.538-1c-.369,0-1,0-1-1,0-.369,0-1,.777-1H4.458a3.714,3.714,0,0,0,.827.936c.288.19.747-.289.458-.926a5.671,5.671,0,0,1-.528-1H3.005A1.8,1.8,0,0,0,1.01,12.553a1.727,1.727,0,0,0,0,.431C1.01,14.467,1.776,14.965,2.905,14.965Z" fill="#424242"/>
</svg>

<svg xmlns="http://www.w3.org/2000/svg" width="0.222in" height="0.222in" viewBox="0 0 16 16">
  <title>FileGroupFile_mounted</title>
  <path d="M16,16H0V0H16Z" fill="#f6f6f6" fill-opacity="0"/>
  <path d="M15,0V15H1V0Z" fill="#f6f6f6"/>
  <path d="M2,1V2H3V3H2V4H3V5H2V6H3V7H2V8H3V9H2v1H3v1H2v1H3v1H2v1H14V1ZM13,13H4V2h9ZM11,4V6H6V4Z" fill="#424242"/>
  <path d="M4,2V13h9V2Zm7,3V6H6V4h5Z" fill="#f0eff1"/>
  <path d="M7.2,15.984a2.592,2.592,0,0,1-.264-.013h-2.8L3.9,15.354a4.752,4.752,0,0,0-.437-.825l-.044-.066-.039-.077a1.8,1.8,0,0,1,.081-1.727A1.38,1.38,0,0,1,4.606,12a1.248,1.248,0,0,1,.686.205l.081.058a4.675,4.675,0,0,1,.721.72h.3l-1.559-3H7.143A2.647,2.647,0,0,1,10,12.415a2.6,2.6,0,0,1-.007.507,2.8,2.8,0,0,1-2.52,3.049A2.617,2.617,0,0,1,7.2,15.984Z" fill="#f0eff1"/>
  <path d="M7.143,10.989H6.474l.519,1c.38,0,1,0,1,1,0,.38,0,1-.779,1H5.574a3.735,3.735,0,0,0-.829-.939c-.289-.19-.749.29-.459.929a5.716,5.716,0,0,1,.529,1H6.993a1.8,1.8,0,0,0,2-1.573,1.777,1.777,0,0,0,0-.425C8.991,11.489,8.262,10.989,7.143,10.989Z" fill="#424242"/>
  <path d="M2.9,15.984A2.67,2.67,0,0,1,0,13.565a2.587,2.587,0,0,1,0-.513A2.8,2.8,0,0,1,2.52,10a2.707,2.707,0,0,1,.53,0H5.886l.254.621a4.738,4.738,0,0,0,.436.824l.044.066.034.075a1.8,1.8,0,0,1-.081,1.727,1.38,1.38,0,0,1-1.149.655,1.248,1.248,0,0,1-.686-.205l-.081-.058a4.65,4.65,0,0,1-.716-.721H3.6l1.619,3Z" fill="#f0eff1"/>
  <path d="M2.9,14.985h.639l-.539-1c-.37,0-1,0-1-1,0-.37,0-1,.779-1H4.456a3.735,3.735,0,0,0,.829.939c.289.19.749-.29.459-.929a5.716,5.716,0,0,1-.529-1H3a1.8,1.8,0,0,0-2,1.573A1.777,1.777,0,0,0,1,13C1,14.486,1.768,14.985,2.9,14.985Z" fill="#424242"/>
</svg>
